X: 9
T: The Morning Star
R: reel
M: 4/4
L: 1/8
K: Gmaj
| B2Ac BEEF | G2Bd gfed | B2Ac BEEF | GBAF ~G3A |
B2Ac BEEF | GABd gded | B2Ac BEEF | GBAF ~G3A |
(3Bcd ef g3eg | f2df edBA |(3Bcd ef gfeg | fedf e3A |
(3Bcd ef g3eg | f2df edBA | (3Bcd ef g2bg | f2af gfed |


Tune 828	Setting 13981

